web/workspace/public/assets/icons/globe.svg

<svg xmlns="http://www.w3.org/2000/svg" width="30" height="30" viewBox="0 0 30 30"><path d="M15 0C6.716 0 0 6.716 0 15s6.716 15 15 15 15-6.716 15-15S23.284 0 15 0zm-1 6.967a19.477 19.477 0 0 1-3.455-.483C11.479 4.258 12.731 2.752 14 2.22v4.747zm0 1.999V14H9.025c.077-2.085.386-3.978.856-5.612 1.301.316 2.681.514 4.119.578zM14 16v5.034a21.492 21.492 0 0 0-4.118.577c-.471-1.633-.779-3.526-.857-5.611H14zm0 7.033v4.747c-1.269-.532-2.521-2.038-3.455-4.265A19.57 19.57 0 0 1 14 23.033zm2 0a19.57 19.57 0 0 1 3.455.482c-.935 2.227-2.187 3.732-3.455 4.265v-4.747zm0-1.999V16h4.975c-.077 2.085-.386 3.978-.856 5.611A21.593 21.593 0 0 0 16 21.034zM16 14V8.966a21.413 21.413 0 0 0 4.118-.578c.471 1.634.779 3.527.856 5.612H16zm0-7.033V2.22c1.269.533 2.521 2.039 3.455 4.264A19.477 19.477 0 0 1 16 6.967zm3.709-4.074a12.983 12.983 0 0 1 3.66 2.166c-.623.329-1.296.62-2.007.873-.47-1.157-1.026-2.18-1.653-3.039zM8.638 5.932a15.252 15.252 0 0 1-2.007-.873 12.983 12.983 0 0 1 3.66-2.166c-.627.859-1.183 1.882-1.653 3.039zm-.665 1.895c-.539 1.854-.868 3.949-.946 6.173H2.051a12.928 12.928 0 0 1 3.102-7.472c.86.501 1.804.938 2.82 1.299zM7.027 16c.078 2.224.406 4.318.945 6.173-1.016.361-1.96.798-2.82 1.299A12.927 12.927 0 0 1 2.051 16h4.976zm1.611 8.068c.471 1.156 1.026 2.18 1.653 3.039a13.006 13.006 0 0 1-3.66-2.166c.623-.329 1.296-.62 2.007-.873zm12.724 0c.711.253 1.384.544 2.007.873a13.006 13.006 0 0 1-3.66 2.166c.627-.859 1.183-1.882 1.653-3.039zm.665-1.895c.539-1.854.867-3.949.945-6.173h4.977a12.928 12.928 0 0 1-3.102 7.472 16.728 16.728 0 0 0-2.82-1.299zM22.973 14c-.078-2.224-.406-4.319-.945-6.173a16.728 16.728 0 0 0 2.82-1.299A12.925 12.925 0 0 1 27.95 14h-4.977z"/></svg>

<?xml version="1.0" encoding="iso-8859-1"?>
<!-- Generator: Adobe Illustrator 14.0.0, SVG Export Plug-In . SVG Version: 6.00 Build 43363)  -->
<!DOCTYPE svg PUBLIC "-//W3C//DTD SVG 1.1//EN" "http://www.w3.org/Graphics/SVG/1.1/DTD/svg11.dtd">
<svg version="1.1" id="Layer_1" xmlns="http://www.w3.org/2000/svg" xmlns:xlink="http://www.w3.org/1999/xlink" x="0px" y="0px"
	 width="30px" height="30px" viewBox="0 0 30 30" style="enable-background:new 0 0 30 30;" xml:space="preserve">
<path d="M15,0C6.716,0,0,6.716,0,15s6.716,15,15,15s15-6.716,15-15S23.284,0,15,0z M14,6.967c-1.201-0.06-2.359-0.227-3.455-0.483
	C11.479,4.258,12.731,2.752,14,2.22V6.967z M14,8.966V14H9.025c0.077-2.085,0.386-3.978,0.856-5.612
	C11.182,8.704,12.562,8.902,14,8.966z M14,16v5.034c-1.438,0.063-2.818,0.262-4.118,0.577C9.411,19.978,9.103,18.085,9.025,16H14z
	 M14,23.033v4.747c-1.269-0.532-2.521-2.038-3.455-4.265C11.641,23.26,12.799,23.093,14,23.033z M16,23.033
	c1.201,0.06,2.359,0.227,3.455,0.482c-0.935,2.227-2.187,3.732-3.455,4.265V23.033z M16,21.034V16h4.975
	c-0.077,2.085-0.386,3.978-0.856,5.611C18.818,21.296,17.438,21.098,16,21.034z M16,14V8.966c1.438-0.063,2.818-0.262,4.118-0.578
	c0.471,1.634,0.779,3.527,0.856,5.612H16z M16,6.967V2.22c1.269,0.533,2.521,2.039,3.455,4.264C18.359,6.74,17.201,6.907,16,6.967z
	 M19.709,2.893c1.342,0.522,2.577,1.254,3.66,2.166c-0.623,0.329-1.296,0.62-2.007,0.873C20.892,4.775,20.336,3.752,19.709,2.893z
	 M8.638,5.932C7.927,5.679,7.254,5.388,6.631,5.059c1.083-0.912,2.318-1.644,3.66-2.166C9.664,3.752,9.108,4.775,8.638,5.932z
	 M7.973,7.827C7.434,9.681,7.105,11.776,7.027,14H2.051c0.217-2.846,1.346-5.433,3.102-7.472C6.013,7.029,6.957,7.466,7.973,7.827z
	 M7.027,16c0.078,2.224,0.406,4.318,0.945,6.173c-1.016,0.361-1.96,0.798-2.82,1.299C3.396,21.433,2.268,18.846,2.051,16H7.027z
	 M8.638,24.068c0.471,1.156,1.026,2.18,1.653,3.039c-1.342-0.523-2.577-1.254-3.66-2.166C7.254,24.612,7.927,24.321,8.638,24.068z
	 M21.362,24.068c0.711,0.253,1.384,0.544,2.007,0.873c-1.083,0.912-2.318,1.643-3.66,2.166
	C20.336,26.248,20.892,25.225,21.362,24.068z M22.027,22.173c0.539-1.854,0.867-3.949,0.945-6.173h4.977
	c-0.217,2.846-1.346,5.433-3.102,7.472C23.987,22.971,23.043,22.534,22.027,22.173z M22.973,14
	c-0.078-2.224-0.406-4.319-0.945-6.173c1.016-0.361,1.96-0.798,2.82-1.299c1.756,2.039,2.885,4.625,3.102,7.472H22.973z"/>
</svg>
